X:241
T:Red Brick House in Georgia Town
Z:Jack Campin, http://www.campin.me.uk/
F:Jack Campin's Nine-Note Tunebook
% last edit 05-03-2013
M:C|
L:1/8
Q:1/2=100
K:DDor
D2|A3^F D2D2|A^FAB c2G2|E3 D C2C2|DCDE FED2|
   A3^F D2D2|A^FAB c2G2|ABcB A2G2|E2C2 D2 :|
D2|A2d2 d2c2|AGAB  c2G2|A3 A c2G2|AGAB c2G2|
   A2d2 d2c2|AGAB  c2G2|ABcB A2G2|E2C2 D2 :|

